X:186
T:Jackson's
T:Jackson's Favourite
R:reel
H:A version of "Ships are Sailing", #151, #687
D:Matt Molloy: Stony Steps
D:Frankie Gavin: Frankie Goes to Town
D:Dervish: The Boys of Sligo
Z:id:hn-reel-186
M:C|
K:Edor
efed BcdB|ABGB AFGF|EFGA BAFB|ABdf eB~B2|
efed BcdB|A2GB AFGF|EFGA (3Bcd ef|gefd Beed:|
efed Bdeg|fddc dfaf|gfed BddB|dBAd BE~E2|
efed Bdeg|fdad bdad|bgaf gfed|BdAd BE~E2|
efed Bdeg|fdad bdad|gfed Bdef|gfga bgef|
g2ef gfeg|fddc defa|bgaf gfef|~g3f efgf||
P:Variations:
|:~e3d B2dB|~A3B AFGF|EFGA BF~F2|ABdf eB~B2|
~e3d B2dB|~A3B AFGF|EFGA Beef|(3gfe fd Beed:|
~e3d Bdeg|fdad bdad|e3d BdAB|dBAF GE~E2|
~e3d Bdeg|fd~d2 defa|bagf gefd|BdAd BE~E2|
~e3d Bdeg|fddc dfaf|gfed Bdef|gfga bgef|
gbef gecg|fddc dfaf|bagf gfef|~g3f efgf||

